**kern	**silbe	**harmony	**phrase	**leadinstrument	**rhyme	**timestamp	**harte
*ICvox	*	*M12/8	*	*	*	*	*M12/8
*VRlead	*	*	*	*	*	*	*
*Hstimme	*	*	*	*	*	*	*
*B:	*	*B:	*	*	*	*	*B:
*M12/8	*	*	*	*	*	*	*
*clefG2	*	*	*	*	*	*	*
r;	.	1r;	.	r	.	0	N.C.
=1	=1	=1	=1	=1	=1	=1	=1
*>Letter>A	*>Letter>A	*>Letter>A	*>Letter>A	*>Letter>A	*>Letter>A	*>Letter>A	*>Letter>A
*>Label>Intro	*>Label>Intro	*>Label>Intro	*>Label>Intro	*>Label>Intro	*>Label>Intro	*>Label>Intro	*>Label>Intro
1.r	.	2.BM	newline	guitar	.	2.228	B:maj
.	.	2.G#mm	.	guitar	.	3.898	G#:min7
=2	=2	=2	=2	=2	=2	=2	=2
1.r	.	2.C#mm	.	guitar	.	5.569	C#:min7
.	.	2.F#Mm	.	guitar	.	7.239	F#:7
=3	=3	=3	=3	=3	=3	=3	=3
*>Letter>B	*>Letter>B	*>Letter>B	*>Letter>B	*>Letter>B	*>Letter>B	*>Letter>B	*>Letter>B
*>Label>Verse	*>Label>Verse	*>Label>Verse	*>Label>Verse	*>Label>Verse	*>Label>Verse	*>Label>Verse	*>Label>Verse
4.B	There's	1.BM	newline	voice	.	8.909	B:maj
4.B	a	.	.	.	.	.	.
4.c#	world	.	.	.	.	.	.
4.B	where	.	.	.	.	.	.
=4	=4	=4	=4	=4	=4	=4	=4
4.d#	I	1.BM	.	voice	.	12.301	B:maj
4.d#	can	.	.	.	A	.	.
4.e	go	.	.	.	.	.	.
4d#	and	.	.	.	A	.	.
8r	.	.	.	.	.	.	.
=5	=5	=5	=5	=5	=5	=5	=5
4.f#	tell	2.BM	.	voice	.	15.694	B:maj
4.f#	my	.	.	.	.	.	.
4.g#	se-	2.AM	.	voice	.	17.39	A:maj
4.e	-crets	.	.	.	.	.	.
=6	=6	=6	=6	=6	=6	=6	=6
2.f#	to.	2.BM	.	voice	B	19.086	B:maj
8r	.	2.G#mm	.	voice	.	20.782	G#:min7
8r	.	.	.	.	.	.	.
[8f#	In	.	.	.	.	.	.
8f#]	_	.	.	.	.	.	.
4d#	my	.	.	.	.	.	.
=7	=7	=7	=7	=7	=7	=7	=7
*>Letter>C	*>Letter>C	*>Letter>C	*>Letter>C	*>Letter>C	*>Letter>C	*>Letter>C	*>Letter>C
*>Label>Chorus	*>Label>Chorus	*>Label>Chorus	*>Label>Chorus	*>Label>Chorus	*>Label>Chorus	*>Label>Chorus	*>Label>Chorus
[1.c#	room,	2.C#mm	newline	voice	B	22.478	C#:min7
.	.	2.AM	.	voice	.	24.191	A:maj
=8	=8	=8	=8	=8	=8	=8	=8
2.c#]	_	1.F#M	.	voice	.	25.905	F#:maj
8r	.	.	.	.	.	.	.
8r	.	.	.	.	.	.	.
[8e	in	.	.	.	.	.	.
8e]	_	.	.	.	.	.	.
4d#	my	.	.	.	.	.	.
=9	=9	=9	=9	=9	=9	=9	=9
[1.B	room.	2.BM	.	voice	B	29.332	B:maj
.	.	2.AM	.	voice	.	31.045	A:maj
=10	=10	=10	=10	=10	=10	=10	=10
2.B]	_	1.BM	.	voice	.	32.759	B:maj
2.r	.	.	.	.	.	.	.
=11	=11	=11	=11	=11	=11	=11	=11
*>Letter>B	*>Letter>B	*>Letter>B	*>Letter>B	*>Letter>B	*>Letter>B	*>Letter>B	*>Letter>B
*>Label>Verse	*>Label>Verse	*>Label>Verse	*>Label>Verse	*>Label>Verse	*>Label>Verse	*>Label>Verse	*>Label>Verse
4.B	In	1.BM	newline	voice	.	36.186	B:maj
4.B	this	.	.	.	.	.	.
4.c#	world	.	.	.	.	.	.
4.B	I	.	.	.	C	.	.
=12	=12	=12	=12	=12	=12	=12	=12
4.d#	lock	1.BM	.	voice	.	39.625	B:maj
4.d#	out	.	.	.	.	.	.
4.e	all	.	.	.	.	.	.
4d#	my	.	.	.	C	.	.
8r	.	.	.	.	.	.	.
=13	=13	=13	=13	=13	=13	=13	=13
4.f#	wor-	2.BM	.	voice	.	43.065	B:maj
4.f#	-ries	.	.	.	.	.	.
4.g#	and	2.AM	.	voice	.	44.785	A:maj
4.e	my	.	.	.	.	.	.
=14	=14	=14	=14	=14	=14	=14	=14
2.f#	fears.	2.BM	.	voice	.	46.505	B:maj
8r	.	2.G#mm	.	voice	.	48.224	G#:min7
8r	.	.	.	.	.	.	.
[8f#	In	.	.	.	.	.	.
8f#]	_	.	.	.	.	.	.
4d#	my	.	.	.	.	.	.
=15	=15	=15	=15	=15	=15	=15	=15
*>Letter>C	*>Letter>C	*>Letter>C	*>Letter>C	*>Letter>C	*>Letter>C	*>Letter>C	*>Letter>C
*>Label>Chorus	*>Label>Chorus	*>Label>Chorus	*>Label>Chorus	*>Label>Chorus	*>Label>Chorus	*>Label>Chorus	*>Label>Chorus
[1.c#	room,	2.C#mm	newline	voice	.	49.944	C#:min7
.	.	2.AM	.	voice	.	51.669	A:maj
=16	=16	=16	=16	=16	=16	=16	=16
2.c#]	_	1.F#M	.	voice	.	53.393	F#:maj
8r	.	.	.	.	.	.	.
8r	.	.	.	.	.	.	.
[8e	in	.	.	.	.	.	.
8e]	_	.	.	.	.	.	.
4d#	my	.	.	.	.	.	.
=17	=17	=17	=17	=17	=17	=17	=17
[1.B	room.	2.BM	.	voice	.	56.842	B:maj
.	.	2.AM	.	voice	.	58.566	A:maj
=18	=18	=18	=18	=18	=18	=18	=18
2.B]	_	1.BM	.	voice	.	60.29	B:maj
2.r	.	.	.	.	.	.	.
=19	=19	=19	=19	=19	=19	=19	=19
*>Letter>D	*>Letter>D	*>Letter>D	*>Letter>D	*>Letter>D	*>Letter>D	*>Letter>D	*>Letter>D
*>Label>Bridge	*>Label>Bridge	*>Label>Bridge	*>Label>Bridge	*>Label>Bridge	*>Label>Bridge	*>Label>Bridge	*>Label>Bridge
4.G#	Do	1.G#mm	newline	voice	.	63.739	G#:min7
4.G#	my	.	.	.	.	.	.
4.D#	dream-	.	.	.	(D	.	.
4.G#	-ing	.	.	.	d)	.	.
=20	=20	=20	=20	=20	=20	=20	=20
4.F#	and	1.F#M	.	voice	.	67.182	F#:maj
4.F#	my	.	.	.	.	.	.
4.G#	sche-	.	.	.	(D	.	.
4F#	-ming	.	.	.	d)	.	.
8r	.	.	.	.	.	.	.
=21	=21	=21	=21	=21	=21	=21	=21
4.G#	lie	4.G#m	.	voice	.	70.625	G#:min
4.F#	a-	4.F#M	.	voice	.	71.486	F#:maj
4.D#	-wake	4.G#m	.	voice	E	72.347	G#:min
4.C#	and	4.F#M	.	voice	.	73.207	F#:maj
=22	=22	=22	=22	=22	=22	=22	=22
4.D#	pray?	1.BM	.	voice	E	74.068	B:maj
4.F#	_	.	.	.	.	.	.
4.r	.	.	.	.	.	.	.
4.r	.	.	.	.	.	.	.
=23	=23	=23	=23	=23	=23	=23	=23
4.d#	Do	1.G#mm	newline	voice	.	77.511	G#:min7
4.d#	my	.	.	.	.	.	.
4.B	cry-	.	.	.	(F	.	.
4.d#	-ing	.	.	.	f)	.	.
=24	=24	=24	=24	=24	=24	=24	=24
4.c#	and	1.F#M	.	voice	.	80.999	F#:maj
4.c#	my	.	.	.	.	.	.
4.A#	sigh-	.	.	.	(F	.	.
4c#	-ing	.	.	.	f)	.	.
8r	.	.	.	.	.	.	.
=25	=25	=25	=25	=25	=25	=25	=25
4.e	laugh	1.C#mm	.	voice	.	84.486	C#:min7
4.e	at	.	.	.	.	.	.
4.B	yes-	.	.	.	.	.	.
4.e	-ter-	.	.	.	.	.	.
=26	=26	=26	=26	=26	=26	=26	=26
1.f#	-day?	2.EM	.	voice	E	87.974	E:sus4
.	.	2.F#M	.	voice	.	89.718	F#:maj
=27	=27	=27	=27	=27	=27	=27	=27
*>Letter>B	*>Letter>B	*>Letter>B	*>Letter>B	*>Letter>B	*>Letter>B	*>Letter>B	*>Letter>B
*>Label>Verse	*>Label>Verse	*>Label>Verse	*>Label>Verse	*>Label>Verse	*>Label>Verse	*>Label>Verse	*>Label>Verse
4.B	Now	1.BM	newline	voice	.	91.462	B:maj
4.B	it's	.	.	.	.	.	.
4.c#	dark	.	.	.	.	.	.
4.B	and	.	.	.	.	.	.
=28	=28	=28	=28	=28	=28	=28	=28
4.d#	I'm	1.BM	.	voice	.	94.942	B:maj
4.d#	a-	.	.	.	.	.	.
4.e	-lone	.	.	.	.	.	.
4d#	but	.	.	.	.	.	.
8r	.	.	.	.	.	.	.
=29	=29	=29	=29	=29	=29	=29	=29
4.f#	I	2.BM	.	voice	.	98.422	B:maj
4.f#	won't	.	.	.	.	.	.
4.g#	be	2.AM	.	voice	.	100.163	A:maj
4.e	a-	.	.	.	.	.	.
=30	=30	=30	=30	=30	=30	=30	=30
2.f#	-fraid.	2.BM	.	voice	E	101.903	B:maj
8r	.	2.G#mm	.	voice	.	103.643	G#:min7
8r	.	.	.	.	.	.	.
[8f#	In	.	.	.	.	.	.
8f#]	_	.	.	.	.	.	.
4d#	my	.	.	.	.	.	.
=31	=31	=31	=31	=31	=31	=31	=31
*>Letter>C2	*>Letter>C2	*>Letter>C2	*>Letter>C2	*>Letter>C2	*>Letter>C2	*>Letter>C2	*>Letter>C2
*>Label>Chorus	*>Label>Chorus	*>Label>Chorus	*>Label>Chorus	*>Label>Chorus	*>Label>Chorus	*>Label>Chorus	*>Label>Chorus
[1.c#	room,	2.C#mm	newline	voice	.	105.383	C#:min7
.	.	2.AM	.	voice	.	107.14	A:maj
=32	=32	=32	=32	=32	=32	=32	=32
2.c#]	_	1.F#M	.	voice	.	108.896	F#:maj
8r	.	.	.	.	.	.	.
8r	.	.	.	.	.	.	.
[8e	in	.	.	.	.	.	.
8e]	_	.	.	.	.	.	.
4d#	my	.	.	.	.	.	.
=33	=33	=33	=33	=33	=33	=33	=33
[1.B	room,	2.BM	.	voice	.	112.409	B:maj
.	.	2.AM	.	voice	.	114.165	A:maj
=34	=34	=34	=34	=34	=34	=34	=34
1.B]	_	2.BM	.	voice	.	115.921	B:maj
.	.	2.AM	.	voice	.	117.678	A:maj
=35	=35	=35	=35	=35	=35	=35	=35
*>Label>>Fadeout	*>Label>>Fadeout	*>Label>>Fadeout	*>Label>>Fadeout	*>Label>>Fadeout	*>Label>>Fadeout	*>Label>>Fadeout	*>Label>>Fadeout
[1.b	room,	2.BM	newline	voice	.	119.434	B:maj
.	.	2.AM	.	voice	.	120.947	A:maj
=36	=36	=36	=36	=36	=36	=36	=36
2.b_	_	2.BM	.	voice	.	122.46	B:maj
4.b]	_	2.AM	.	voice	.	123.973	A:maj
8r	.	.	.	.	.	.	.
4f#	my	.	.	.	.	.	.
=37	=37	=37	=37	=37	=37	=37	=37
[1.b	room.	2.BM	.	voice	.	125.487	B:maj
.	.	2.AM	.	voice	.	127	A:maj
=38	=38	=38	=38	=38	=38	=38	=38
1.b]	_	2.BM	.	voice	.	128.513	B:maj
.	.	2.AM	.	voice	.	130.026	A:maj
r;	.	1r;	.	r	.	131.539	N.C.
r;	.	1r;	.	r	.	134.88	N.C.
*-	*-	*-	*-	*-	*-	*-	*-
!!!BillboardChartDate: 1963/11/23
!!!BillboardPeak: 23
!!!BillboardWeeksOnChart: 11
!!!COC: The Beach Boys
!!!EMD: Original transcription in 4/4 when it should be 12/8. Fixed. -Nat
!!!EMD: There shouldn't really be a "chorus" section. Its a "refrain" at most. -Nat
!!!ENC: Nathaniel Condit-Schultz
!!!EST: Awating manual error checking and editing.
!!!OTL: In My Room
!!!RDF**chordsym: original McGill chord annotation + (implied pitch class set, with bass pitch in first position)
!!!RDF**harmony: **recip + pitch class of root + harmonic quality
!!!RDF**leadinstrument: original McGill primary instrumentation annotation
!!!RDF**phrase: newline = linebreak in original McGill transcription
!!!RDF**timestamp: McGill audio timestamp in seconds
!!!RDT: 2017/01/12/
!!!SampleActualRank: 44
!!!SampleID#: 0270
!!!SampleTargetRank: 44
